X:1
T:Schleinige Taenze in G,nr. 11
C:traditionell
R:Schleuniger
A:Hallstatt, Salzkammergut
B:Corpus Musicae Popularis Austriacae (COMPA), 5. Band: J.M.Schmalnauer "Tanz Musik", Verlag Boehlau, Wien 1996
S:manuscript (2 stimmbuecher) des Johann Michael Schmalnauer
N:ca.1800
N:in der quelle in G, zweistimmig
M:3/4
L:1/8
K:G
(GB>)z (dcD) | (FA>)z (cB2) | (GB>)z (dcD) | (FA>)z (FG2) :|
|:GBBd cD | FAAc B2 | GBBd cD | FAADG2 :|



